X:1
T:Title
%%score { ( 1 3 ) | 2 }
L:1/8
M:3/4
K:A
V:1 treble nm="Grand Piano"
V:3 treble 
V:2 bass 
V:1
 z2 z2[Q:1/4=100] [CE][CE] | [CA]3 [DB] [CA][EG] | [EG] F3 GA | E3 c dc |[M:2/4] [GB]4 | %5
[M:1/4] [Ac][Gd] |[M:3/4] e3 c BA | A F3 [Fd][FB] | G2 G2 FG |[M:2/4] [CEA]4 |[M:1/4] GA | %11
[M:3/4] B2 B2 A[EB] | [^Ec]2 [Ec]2 FF | [Fd]3 [Fc] [FB][^DA] |[M:2/4] B4 |[M:1/4] [Ec][Ed] | %16
[M:3/4] [Ae]3 [Ec] [EB][EA] | [FA] [DF]3 [EG][FA] |[M:7/8] [EB][Ec] [Gd]3 [EG]2 |[M:2/4] [CEA]4 |] %20
V:2
 z2 z2 [A,,A,][A,,A,] | [A,,A,]3 [A,,A,] [A,,A,][A,,A,] | [D,A,] [D,A,D]3 [E,D][F,B,D] | %3
 [G,B,]3[K:treble] [A,E] [B,EG][A,EA] |[M:2/4][K:bass] [E,D]4 |[M:1/4] [E,E][E,D] | %6
[M:3/4][K:treble] [A,CA]3 [A,E][K:bass] [E,G,E][F,A,C] | [D,F,D] [D,A,D]3 [D,B,][D,B,] | %8
 [E,B,E]2 [E,B,E]2 [E,A,E][E,B,E] |[M:2/4] [A,,A,]4 |[M:1/4] [E,E][E,F,E] | %11
[M:3/4] [E,G,E]2 [E,G,E]2 [F,A,C][A,,G,] | [C,G,]2 [C,G,]2 [D,B,][D,B,] | %13
 [B,,B,]3 [B,,A,] [B,,G,][B,,F,] |[M:2/4] [E,G,E]4 |[M:1/4] [C,A,][B,,B,] | %16
[M:3/4] [A,,C]3 [A,,A,] [B,,G,][C,A,] | [D,A,] [D,A,]3 [D,B,][C,A,] | %18
[M:7/8] [B,,G,][A,,A,] [E,B,]3 [E,D]2 |[M:2/4] [A,,A,]4 |] %20
V:3
 x6 | x6 | x6 | x6 |[M:2/4] x4 |[M:1/4] x2 |[M:3/4] x6 | x6 | x6 |[M:2/4] x4 |[M:1/4] x2 | %11
[M:3/4] x6 | x6 | x6 |[M:2/4] z2 z D, |[M:1/4] x2 |[M:3/4] x6 | x6 |[M:7/8] x7 |[M:2/4] x4 |] %20

